symbols/web/5mp/materialsymbolssharp/5mp_wght500grad200_48px.svg

<svg xmlns="http://www.w3.org/2000/svg" height="48" width="48"><path d="M18.45 22.7h8.5v-6.8H20.9v-2.75h6.05v-2.5h-8.5v6.85h6.05v2.7h-6.05ZM5.25 42.75V5.25h37.5v37.5ZM9.1 38.9h29.8V9.1H9.1Zm2.45-1.5h2.5v-9.45h2.7v6.3h2.5v-6.3h3.05v9.45h2.5v-12H11.55Zm16.3 0h2.5v-3.2h6.05v-8.8h-8.55Zm2.5-9.45h3.55v3.75h-3.55ZM9.1 9.1v29.8Z"/></svg>

<svg xmlns="http://www.w3.org/2000/svg" height="48" width="48"><path d="M18.45 22.7H26.95V15.9H20.9V13.15H26.95V10.65H18.45V17.5H24.5V20.2H18.45ZM5.25 42.75V5.25H42.75V42.75ZM9.1 38.9H38.9V9.1H9.1ZM11.55 37.4H14.05V27.95H16.75V34.25H19.25V27.95H22.3V37.4H24.8V25.4H11.55ZM27.85 37.4H30.35V34.2H36.4V25.4H27.85ZM30.35 27.95H33.9V31.7H30.35ZM9.1 9.1V38.9Z"/></svg>
